web/packages/design/src/ResourceIcon/assets/semrush.svg

<svg width="72" height="72" viewBox="0 0 72 72" fill="none" xmlns="http://www.w3.org/2000/svg">
<path d="M62.0897 35.7186C62.0897 37.0597 61.4177 37.2665 59.7148 37.2665C57.9084 37.2665 57.5983 36.9565 57.3917 35.6152C57.0297 32.1578 54.7065 29.2143 50.7865 28.9069C49.5488 28.8035 49.2387 28.3383 49.2387 26.7904C49.2387 25.3459 49.4454 24.674 50.5798 24.674C57.3917 24.674 62.0897 30.1446 62.0897 35.7186ZM72 35.7186C72 25.3459 64.9813 14.4019 48.7735 14.4019H16.5561C15.906 14.4019 15.5034 14.7419 15.5034 15.3349C15.5034 15.6587 15.7455 15.9497 15.9658 16.1211C17.1465 17.0488 18.8657 18.0689 21.1727 19.2223C23.4088 20.3404 25.1362 21.0668 26.8908 21.7795C27.6145 22.0733 27.9028 22.3943 27.9028 22.8241C27.9028 23.3845 27.5083 23.7409 26.6922 23.7409H1.12079C0.364529 23.7409 0 24.2278 0 24.7202C0 25.1391 0.1469 25.4738 0.503268 25.8437C2.57891 28.0091 5.87871 30.6207 10.7019 33.6376C14.9294 36.2817 20.1525 39.1354 24.2956 41.1213C24.9921 41.4558 25.2341 41.8422 25.2179 42.2421C25.1987 42.7045 24.8342 43.0963 24.029 43.0963H12.3069C11.6405 43.0963 11.2705 43.4472 11.2705 43.9858C11.2705 44.285 11.5126 44.6659 11.8282 44.9543C14.4941 47.3726 18.7569 50.0169 24.4371 52.4352C32.0133 55.6617 39.7256 57.6012 48.3871 57.6012C64.8019 57.6012 72 45.3188 72 35.7186ZM50.5798 50.4276C42.5275 50.4276 35.8191 43.8716 35.8191 35.7186C35.8191 27.6664 42.5275 21.2164 50.5798 21.2164C58.8388 21.2164 65.2888 27.6691 65.2888 35.7186C65.2888 43.8716 58.8388 50.4276 50.5798 50.4276Z" fill="#FF642D"/>
</svg>

<svg xmlns="http://www.w3.org/2000/svg" width="72" height="72" fill="none" viewBox="0 0 72 72"><path fill="#ff642d" d="M62.09 35.719c0 1.34-.672 1.547-2.375 1.547-1.807 0-2.117-.31-2.323-1.65-.362-3.458-2.686-6.402-6.606-6.71-1.237-.102-1.547-.568-1.547-2.116 0-1.444.206-2.116 1.34-2.116 6.813 0 11.51 5.47 11.51 11.045m9.91 0c0-10.373-7.019-21.317-23.226-21.317H16.555c-.65 0-1.053.34-1.053.933 0 .324.242.615.463.786 1.18.928 2.9 1.948 5.207 3.101 2.236 1.118 3.963 1.845 5.718 2.557.724.294 1.012.615 1.012 1.045 0 .56-.395.917-1.21.917H1.12c-.756 0-1.121.487-1.121.98 0 .418.147.753.503 1.123 2.076 2.165 5.376 4.777 10.199 7.794 4.227 2.644 9.45 5.497 13.594 7.483.696.335.938.721.922 1.121-.02.463-.384.854-1.189.854H12.307c-.667 0-1.037.351-1.037.89 0 .299.243.68.558.968 2.666 2.419 6.929 5.063 12.61 7.481 7.575 3.227 15.288 5.166 23.95 5.166C64.801 57.601 72 45.32 72 35.72M50.58 50.428c-8.052 0-14.76-6.556-14.76-14.71 0-8.052 6.708-14.502 14.76-14.502 8.259 0 14.709 6.453 14.709 14.503 0 8.153-6.45 14.709-14.71 14.709"/></svg>
